public/images/header.svg

<?xml version="1.0" encoding="UTF-8" standalone="no"?>
<!-- Created with Inkscape (http://www.inkscape.org/) -->

<svg
   xmlns:dc="http://purl.org/dc/elements/1.1/"
   xmlns:cc="http://creativecommons.org/ns#"
   xmlns:rdf="http://www.w3.org/1999/02/22-rdf-syntax-ns#"
   xmlns:svg="http://www.w3.org/2000/svg"
   xmlns="http://www.w3.org/2000/svg"
   xmlns:xlink="http://www.w3.org/1999/xlink"
   xmlns:sodipodi="http://sodipodi.sourceforge.net/DTD/sodipodi-0.dtd"
   xmlns:inkscape="http://www.inkscape.org/namespaces/inkscape"
   width="1500"
   height="500"
   id="svg2"
   version="1.1"
   inkscape:version="0.48.4 r9939"
   sodipodi:docname="header.svg"
   enable-background="new">
  <defs
     id="defs4">
    <linearGradient
       inkscape:collect="always"
       id="linearGradient4195">
      <stop
         style="stop-color:#000000;stop-opacity:1;"
         offset="0"
         id="stop4197" />
      <stop
         style="stop-color:#000000;stop-opacity:0;"
         offset="1"
         id="stop4199" />
    </linearGradient>
    <linearGradient
       id="linearGradient3784">
      <stop
         style="stop-color:#ffff00;stop-opacity:1;"
         offset="0"
         id="stop3786" />
      <stop
         style="stop-color:#ff00ff;stop-opacity:0;"
         offset="1"
         id="stop3788" />
    </linearGradient>
    <linearGradient
       inkscape:collect="always"
       id="linearGradient4050">
      <stop
         style="stop-color:#2b111e;stop-opacity:1;"
         offset="0"
         id="stop4052" />
      <stop
         style="stop-color:#2b111e;stop-opacity:0;"
         offset="1"
         id="stop4054" />
    </linearGradient>
    <filter
       id="filter3894"
       height="1"
       width="1"
       y="0"
       x="0"
       inkscape:label="Film grain"
       inkscape:menu="Image effects"
       inkscape:menu-tooltip="Adds a small scale graininess"
       color-interpolation-filters="sRGB">
      <feTurbulence
         id="feTurbulence3896"
         type="fractalNoise"
         numOctaves="3"
         baseFrequency="1"
         seed="0"
         result="result0" />
      <feColorMatrix
         id="feColorMatrix3898"
         result="result4"
         values="0"
         type="saturate" />
      <feComposite
         id="feComposite3900"
         in2="result4"
         in="SourceGraphic"
         operator="arithmetic"
         k1="1.25"
         k2="0.5"
         k3="0.5"
         result="result2" />
      <feBlend
         id="feBlend3902"
         in2="SourceGraphic"
         result="result5"
         mode="normal"
         in="result2" />
      <feComposite
         id="feComposite3904"
         in2="SourceGraphic"
         in="result5"
         operator="in"
         result="result3" />
    </filter>
    <filter
       inkscape:collect="always"
       id="filter4001"
       x="-0.048790026"
       width="1.0975801"
       y="-0.14391695"
       height="1.2878339">
      <feGaussianBlur
         inkscape:collect="always"
         stdDeviation="30.668016"
         id="feGaussianBlur4003" />
    </filter>
    <radialGradient
       inkscape:collect="always"
       xlink:href="#linearGradient4050"
       id="radialGradient4056"
       cx="715.13708"
       cy="1051.5814"
       fx="715.13708"
       fy="1051.5814"
       r="752.85718"
       gradientTransform="matrix(1.0416337,0,0,0.70294674,-27.768042,-233.49141)"
       gradientUnits="userSpaceOnUse" />
    <radialGradient
       inkscape:collect="always"
       xlink:href="#linearGradient3784"
       id="radialGradient3790"
       cx="750.71423"
       cy="1025.0428"
       fx="740.71423"
       fy="2337.3831"
       r="754.07141"
       gradientTransform="matrix(0.99988787,0.01497511,-0.00947239,0.63247135,9.7937838,-143.12371)"
       gradientUnits="userSpaceOnUse" />
    <filter
       inkscape:collect="always"
       id="filter3804">
      <feBlend
         inkscape:collect="always"
         mode="lighten"
         in2="BackgroundImage"
         id="feBlend3806" />
    </filter>
    <filter
       inkscape:collect="always"
       id="filter3829"
       x="-0.19099543"
       width="1.3819909"
       y="-2.0752696"
       height="5.1505392">
      <feGaussianBlur
         inkscape:collect="always"
         stdDeviation="89.785134"
         id="feGaussianBlur3831" />
    </filter>
    <filter
       inkscape:collect="always"
       id="filter3884"
       x="-0.111414"
       width="1.222828"
       y="-1.2105739"
       height="3.4211479">
      <feGaussianBlur
         inkscape:collect="always"
         stdDeviation="52.374662"
         id="feGaussianBlur3886" />
    </filter>
    <filter
       inkscape:collect="always"
       id="filter4188">
      <feBlend
         inkscape:collect="always"
         mode="lighten"
         in2="BackgroundImage"
         id="feBlend4190" />
    </filter>
    <radialGradient
       inkscape:collect="always"
       xlink:href="#linearGradient4195"
       id="radialGradient4201"
       cx="757.14282"
       cy="1099.7993"
       fx="698.57141"
       fy="2437.7771"
       r="753.65712"
       gradientTransform="matrix(1.0881894,2.0632935e-8,-2.3138662e-8,1.2203424,-66.771942,-803.56034)"
       gradientUnits="userSpaceOnUse" />
    <radialGradient
       inkscape:collect="always"
       xlink:href="#linearGradient4195-4"
       id="radialGradient4201-8"
       cx="757.14282"
       cy="1099.7993"
       fx="698.57141"
       fy="2437.7771"
       r="753.6571"
       gradientTransform="matrix(1.0881894,2.0632935e-8,-2.3138662e-8,1.2203424,-66.771942,-803.56034)"
       gradientUnits="userSpaceOnUse" />
    <linearGradient
       inkscape:collect="always"
       id="linearGradient4195-4">
      <stop
         style="stop-color:#000000;stop-opacity:1;"
         offset="0"
         id="stop4197-8" />
      <stop
         style="stop-color:#000000;stop-opacity:0;"
         offset="1"
         id="stop4199-1" />
    </linearGradient>
    <radialGradient
       r="753.6571"
       fy="2437.7771"
       fx="698.57141"
       cy="1099.7993"
       cx="757.14282"
       gradientTransform="matrix(1.0881894,2.0632935e-8,-2.3138662e-8,1.2203424,-66.771911,-802.13178)"
       gradientUnits="userSpaceOnUse"
       id="radialGradient4218"
       xlink:href="#linearGradient3784"
       inkscape:collect="always" />
  </defs>
  <sodipodi:namedview
     id="base"
     pagecolor="#ffffff"
     bordercolor="#666666"
     borderopacity="1.0"
     inkscape:pageopacity="0.0"
     inkscape:pageshadow="2"
     inkscape:zoom="0.7"
     inkscape:cx="707.5963"
     inkscape:cy="269.02687"
     inkscape:document-units="px"
     inkscape:current-layer="layer8"
     showgrid="false"
     inkscape:window-width="1855"
     inkscape:window-height="1056"
     inkscape:window-x="65"
     inkscape:window-y="24"
     inkscape:window-maximized="1" />
  <metadata
     id="metadata7">
    <rdf:RDF>
      <cc:Work
         rdf:about="">
        <dc:format>image/svg+xml</dc:format>
        <dc:type
           rdf:resource="http://purl.org/dc/dcmitype/StillImage" />
      </cc:Work>
    </rdf:RDF>
  </metadata>
  <g
     inkscape:label="Layer 1"
     inkscape:groupmode="layer"
     id="layer1"
     transform="translate(0,-552.36218)"
     sodipodi:insensitive="true" />
  <g
     inkscape:groupmode="layer"
     id="layer2"
     inkscape:label="Background"
     style="display:inline">
    <rect
       style="fill:#121212;fill-opacity:1;stroke:none"
       id="rect2986"
       width="1502.8572"
       height="505.71429"
       x="-1.4285715"
       y="1.4285712" />
  </g>
  <g
     inkscape:groupmode="layer"
     id="layer3"
     inkscape:label="Grid"
     style="opacity:0.51028807;display:inline"
     sodipodi:insensitive="true">
    <path
       d="m -1.285696,-1.4285729 0,508.5714329 m 100,-508.5714329 0,508.5714329 M 198.7143,-1.4285729 l 0,508.5714329 m 100,-508.5714329 0,508.5714329 m 100,-508.5714329 0,508.5714329 m 100,-508.5714329 0,508.5714329 m 100,-508.5714329 0,508.5714329 m 100,-508.5714329 0,508.5714329 m 100,-508.5714329 0,508.5714329 m 100,-508.5714329 0,508.5714329 m 100,-508.5714329 0,508.5714329 m 100,-508.5714329 0,508.5714329 m 100,-508.5714329 0,508.5714329 m 100,-508.5714329 0,508.5714329 m 100,-508.5714329 0,508.5714329 m 100,-508.5714329 0,508.5714329 M -1.285696,-1.4285729 l 1505.714296,0 M -1.285696,98.571427 l 1505.714296,0 M -1.285696,198.57143 l 1505.714296,0 m -1505.714296,100 1505.714296,0 m -1505.714296,100 1505.714296,0 m -1505.714296,100 1505.714296,0"
       style="opacity:0.80658438;fill:none;stroke:#57b4fb;stroke-width:1pt;stroke-linecap:butt;stroke-linejoin:miter;stroke-opacity:1"
       id="path3867"
       inkscape:connector-curvature="0" />
  </g>
  <g
     inkscape:groupmode="layer"
     id="layer4"
     inkscape:label="Grain"
     style="display:inline"
     sodipodi:insensitive="true">
    <rect
       style="opacity:0.38683131;fill:#121212;fill-opacity:1;stroke:none;filter:url(#filter3894)"
       id="rect2986-5"
       width="1502.8572"
       height="505.71429"
       x="-1.4285891"
       y="-1.4285692"
       transform="matrix(1.0019011,0,0,1.0028249,-2.8544269,0.00403551)" />
  </g>
  <g
     inkscape:groupmode="layer"
     id="layer8"
     inkscape:label="Layer"
     style="opacity:1">
    <rect
       style="opacity:1;fill:url(#radialGradient4201);fill-opacity:1;stroke:#000000;stroke-width:1.60000001999999997;stroke-miterlimit:4;stroke-opacity:1;stroke-dasharray:none;stroke-dashoffset:0"
       id="rect4193"
       width="1505.7142"
       height="508.57144"
       x="-4.2857141"
       y="-2.8571429" />
    <rect
       style="fill:url(#radialGradient4218);fill-opacity:1.0;stroke:#000000;stroke-width:1.60000001999999997;stroke-miterlimit:4;stroke-opacity:1;stroke-dasharray:none;stroke-dashoffset:0"
       id="rect4193-6"
       width="1505.7142"
       height="508.57144"
       x="-4.2856879"
       y="-1.4285768" />
  </g>
</svg>

<svg xmlns="http://www.w3.org/2000/svg" id="svg2" width="1500" height="500" xmlns:xlink="http://www.w3.org/1999/xlink" enable-background="new">
  <defs id="defs4">
    <linearGradient id="linearGradient4195">
      <stop id="stop4197" offset="0"/>
      <stop id="stop4199" offset="1" stop-opacity="0"/>
    </linearGradient>
    <linearGradient id="linearGradient3784">
      <stop id="stop3786" offset="0" stop-color="#ff0"/>
      <stop id="stop3788" offset="1" stop-color="#f0f" stop-opacity="0"/>
    </linearGradient>
    <linearGradient id="linearGradient4050">
      <stop id="stop4052" offset="0" stop-color="#2b111e"/>
      <stop id="stop4054" offset="1" stop-color="#2b111e" stop-opacity="0"/>
    </linearGradient>
    <filter id="filter3894" width="1" height="1" x="0" y="0" color-interpolation-filters="sRGB">
      <feTurbulence id="feTurbulence3896" type="fractalNoise" numOctaves="3" baseFrequency="1" result="result0"/>
      <feColorMatrix id="feColorMatrix3898" result="result4" values="0" type="saturate"/>
      <feComposite id="feComposite3900" in2="result4" in="SourceGraphic" operator="arithmetic" k1="1.25" k2=".5" k3=".5" result="result2"/>
      <feBlend id="feBlend3902" in2="SourceGraphic" result="result5" in="result2"/>
      <feComposite id="feComposite3904" in2="SourceGraphic" in="result5" operator="in" result="result3"/>
    </filter>
    <filter id="filter4001" width="1.0975801" height="1.2878339" x="-.04879003" y="-.14391695">
      <feGaussianBlur id="feGaussianBlur4003" stdDeviation="30.668016"/>
    </filter>
    <radialGradient id="radialGradient4056" cx="715.13708" cy="1051.5814" r="752.85718" xlink:href="#linearGradient4050" fx="715.13708" fy="1051.5814" gradientTransform="matrix(1.04163 0 0 .70295 -27.768 -233.49)" gradientUnits="userSpaceOnUse"/>
    <radialGradient id="radialGradient3790" cx="750.71423" cy="1025.0428" r="754.07141" xlink:href="#linearGradient3784" fx="740.71423" fy="2337.3831" gradientTransform="matrix(.9999 .01498 -.00947 .63247 9.794 -143.124)" gradientUnits="userSpaceOnUse"/>
    <filter id="filter3804">
      <feBlend id="feBlend3806" mode="lighten" in2="BackgroundImage"/>
    </filter>
    <filter id="filter3829" width="1.3819909" height="5.1505392" x="-.19099543" y="-2.0752696">
      <feGaussianBlur id="feGaussianBlur3831" stdDeviation="89.785134"/>
    </filter>
    <filter id="filter3884" width="1.222828" height="3.4211479" x="-.111414" y="-1.2105739">
      <feGaussianBlur id="feGaussianBlur3886" stdDeviation="52.374662"/>
    </filter>
    <filter id="filter4188">
      <feBlend id="feBlend4190" mode="lighten" in2="BackgroundImage"/>
    </filter>
    <radialGradient id="radialGradient4201" cx="757.14282" cy="1099.7993" r="753.65712" xlink:href="#linearGradient4195" fx="698.57141" fy="2437.7771" gradientTransform="matrix(1.0882 0 0 1.22034 -66.772 -803.56)" gradientUnits="userSpaceOnUse"/>
    <radialGradient id="radialGradient4201-8" cx="757.14282" cy="1099.7993" r="753.6571" xlink:href="#linearGradient4195-4" fx="698.57141" fy="2437.7771" gradientTransform="matrix(1.0882 0 0 1.22034 -66.772 -803.56)" gradientUnits="userSpaceOnUse"/>
    <linearGradient id="linearGradient4195-4">
      <stop id="stop4197-8" offset="0"/>
      <stop id="stop4199-1" offset="1" stop-opacity="0"/>
    </linearGradient>
    <radialGradient id="radialGradient4218" cx="757.14282" cy="1099.7993" r="753.6571" fy="2437.7771" fx="698.57141" gradientTransform="matrix(1.0882 0 0 1.22034 -66.772 -802.132)" gradientUnits="userSpaceOnUse" xlink:href="#linearGradient3784"/>
  </defs>
  <g id="layer2">
    <path id="rect2986" fill="#121212" d="M-1.4285715 1.4285712h1502.8572v505.71429h-1502.8572z"/>
  </g>
  <g id="layer3" opacity=".51028807">
    <path id="path3867" fill="none" stroke="#57b4fb" stroke-width="1pt" d="M-1.285696-1.4285729V507.14286m100-508.5714329V507.14286M198.7143-1.4285729V507.14286m100-508.5714329V507.14286m100-508.5714329V507.14286m100-508.5714329V507.14286m100-508.5714329V507.14286m100-508.5714329V507.14286m100-508.5714329V507.14286m100-508.5714329V507.14286m100-508.5714329V507.14286m100-508.5714329V507.14286m100-508.5714329V507.14286m100-508.5714329V507.14286m100-508.5714329V507.14286m100-508.5714329V507.14286M-1.285696-1.4285729H1504.4286M-1.285696 98.571427H1504.4286M-1.285696 198.57143H1504.4286m-1505.714296 100H1504.4286m-1505.714296 100H1504.4286m-1505.714296 100H1504.4286" opacity=".80658438"/>
  </g>
  <g id="layer4">
    <path id="rect2986-5" fill="#121212" d="M-1.4285891-1.4285692h1502.8572v505.71429h-1502.8572z" transform="matrix(1.0019 0 0 1.00282 -2.854 .004)" opacity=".38683131" filter="url(#filter3894)"/>
  </g>
  <g id="layer8">
    <path id="rect4193" fill="url(#radialGradient4201)" stroke="#000" stroke-width="1.60000002" d="M-4.2857141-2.8571429h1505.7142v508.57144h-1505.7142z"/>
  </g>
</svg>
